X:32
T:Money In Both Pockets.WM.032
M:6/8
L:1/8
Q:3/8=120
S:Wm.Mittell’s MS, New Romney,Kent,1799
R:.Jig
O:England
A:Kent
Z:vmp.Chris Partington
K:D
A|d2F FGF|ABA AGF|d2F FGF|ABA gfe|!
d2F FGF|ABA AGF|EFE EFA|B2BB2:|!
|:A|dfa afd|c2e ecA|dfa afd|(g3f2) f/g/|!
agf gfg|agf ede|fdB AFA|B2BB2:|

